packages/components/icon/src/assets/icons/sales.svg

<svg width="24" height="24" viewBox="0 0 24 24" fill="none" xmlns="http://www.w3.org/2000/svg">
<path fill-rule="evenodd" clip-rule="evenodd" d="M15.6023 5C15.8048 5 15.9747 5.0687 16.1121 5.2061C16.2495 5.34349 16.3182 5.51343 16.3182 5.71591V8.81818H17.75C18.1405 8.81818 18.5382 8.94111 18.9432 9.18698C19.3481 9.43285 19.6446 9.73657 19.8326 10.0981L20.7655 11.9855C20.8523 12.1591 20.9282 12.3796 20.9933 12.6472C21.0584 12.9148 21.0909 13.1498 21.0909 13.3523V15.7386C21.0909 15.9267 21.0222 16.093 20.8848 16.2376C20.7474 16.3822 20.5775 16.4545 20.375 16.4545H19.1818C19.1818 17.1054 18.9504 17.6658 18.4876 18.1358C18.0248 18.6059 17.4607 18.8409 16.7955 18.8409C16.1302 18.8409 15.5661 18.6059 15.1033 18.1358C14.6405 17.6658 14.4091 17.1054 14.4091 16.4545H8.68182C8.68182 17.1054 8.45042 17.6658 7.9876 18.1358C7.52479 18.6059 6.96075 18.8409 6.29545 18.8409C5.63016 18.8409 5.06612 18.6059 4.60331 18.1358C4.14049 17.6658 3.90909 17.1054 3.90909 16.4545H2.71591C2.52789 16.4545 2.36157 16.3822 2.21694 16.2376C2.07231 16.093 2 15.9267 2 15.7386V5.71591C2 5.51343 2.0687 5.34349 2.2061 5.2061C2.34349 5.0687 2.51343 5 2.71591 5H15.6023ZM20.0279 12.6364L18.9649 10.5103C18.8636 10.3223 18.6901 10.1524 18.4442 10.0005C18.1983 9.84866 17.9669 9.77273 17.75 9.77273H16.3182V12.6364H20.0279ZM6.29545 15.0227C5.90496 15.0227 5.5687 15.1601 5.28667 15.4349C5.00465 15.7097 4.86364 16.0496 4.86364 16.4545C4.86364 16.845 5.00465 17.1813 5.28667 17.4633C5.5687 17.7454 5.90496 17.8864 6.29545 17.8864C6.68595 17.8864 7.02221 17.7454 7.30424 17.4633C7.58626 17.1813 7.72727 16.845 7.72727 16.4545C7.72727 16.0496 7.58626 15.7097 7.30424 15.4349C7.02221 15.1601 6.68595 15.0227 6.29545 15.0227ZM16.7955 15.0227C16.405 15.0227 16.0687 15.1601 15.7867 15.4349C15.5046 15.7097 15.3636 16.0496 15.3636 16.4545C15.3636 16.845 15.5046 17.1813 15.7867 17.4633C16.0687 17.7454 16.405 17.8864 16.7955 17.8864C17.186 17.8864 17.5222 17.7454 17.8042 17.4633C18.0863 17.1813 18.2273 16.845 18.2273 16.4545C18.2273 16.0496 18.0863 15.7097 17.8042 15.4349C17.5222 15.1601 17.186 15.0227 16.7955 15.0227Z" fill="currentColor"/>
</svg>

<svg viewBox="0 0 24 24" fill="none" xmlns="http://www.w3.org/2000/svg"><path fill-rule="evenodd" clip-rule="evenodd" d="M15.602 5c.203 0 .373.069.51.206a.692.692 0 0 1 .206.51v3.102h1.432c.39 0 .788.123 1.193.369s.702.55.89.911l.933 1.887c.086.174.162.395.227.662.065.268.098.503.098.705v2.387a.703.703 0 0 1-.206.499.675.675 0 0 1-.51.216h-1.193c0 .651-.232 1.212-.694 1.682a2.285 2.285 0 0 1-1.692.705c-.666 0-1.23-.235-1.693-.705a2.313 2.313 0 0 1-.694-1.681H8.682c0 .65-.232 1.21-.694 1.68a2.285 2.285 0 0 1-1.693.706 2.285 2.285 0 0 1-1.692-.705 2.313 2.313 0 0 1-.694-1.681H2.716a.686.686 0 0 1-.5-.217.686.686 0 0 1-.216-.5V5.717c0-.203.069-.373.206-.51A.692.692 0 0 1 2.716 5h12.886Zm4.426 7.636-1.063-2.126c-.101-.188-.275-.358-.52-.51-.247-.151-.478-.227-.695-.227h-1.432v2.863h3.71ZM6.295 15.023c-.39 0-.726.137-1.008.412a1.367 1.367 0 0 0-.423 1.02c0 .39.14.726.423 1.008.282.282.618.423 1.008.423.391 0 .727-.14 1.01-.423a1.38 1.38 0 0 0 .422-1.009c0-.404-.14-.744-.423-1.02a1.395 1.395 0 0 0-1.009-.411Zm10.5 0c-.39 0-.726.137-1.008.412a1.367 1.367 0 0 0-.423 1.02c0 .39.14.726.423 1.008.282.282.618.423 1.008.423.391 0 .727-.14 1.01-.423a1.38 1.38 0 0 0 .422-1.009c0-.404-.14-.744-.423-1.02a1.395 1.395 0 0 0-1.008-.411Z" fill="currentColor"/></svg>
